X: 1
T: Tolppatanssi
T: Pole dance
O: Trad Finland
Q: 1/4=112
P: Play 4 times
M: 2/4
L: 1/8
K: Am
|: "Am"cA cA | ee/d/ cc | "G"dB dB | ff/e/ d2 :|
|::: "C"e2 g2 | "G7"d2 f2 | "C"ee/e/ "G7"fd |1,3 "C"c2 cd :|2,4 "C"c4 :|
|::: "Am"ed/c/ "E7"dc/B/ | "Am"AA cc |1,3 "(E7)"ed "Am"c2 :|2,4 "(E7)"e2 "Am"A2 :|
